X: 42341
T: Weekend Feeling
R: reel
M: 4/4
K: Gmajor
|:dgfg d3 g|dgfg edcB|Ae e2 d2 BA|gecf dagf-|
fg g2 d3 g|dgfg edcB|Ae e2 d2 BA|1 GFAF G2 G2:|2 GFAF G2 GA||
|:Bd z d Bd z d|ce e2 ce e2|df f2 df f2|eg g2 e2 (3efg|
fa a2 fa a2|gb b2 g2 (3gab|agfe dcBA|1 GFAF G2 GA:|2 GFAF G2 G2||

